static/img/kroki/ed4a2784d77805efa9f1e2941583579c.svg

<?xml version="1.0" encoding="us-ascii" standalone="no"?><svg xmlns="http://www.w3.org/2000/svg" xmlns:xlink="http://www.w3.org/1999/xlink" contentStyleType="text/css" height="252px" preserveAspectRatio="none" style="width:892px;height:252px;" version="1.1" viewBox="0 0 892 252" width="892px" zoomAndPan="magnify"><defs/><g><!--class aws_ecs_capacity_provider--><g id="elem_aws_ecs_capacity_provider"><rect codeLine="23" fill="#3D176E" height="39.7891" id="aws_ecs_capacity_provider" rx="2.5" ry="2.5" style="stroke:#000D19;stroke-width:0.5;" width="265" x="8.88" y="206.58"/><ellipse cx="23.88" cy="226.4745" fill="#ADD1B2" rx="11" ry="11" style="stroke:#181818;stroke-width:1.0;"/><path d="M26.8488,232.1152 Q26.2706,232.412 25.63,232.5527 Q24.9894,232.7089 24.2863,232.7089 Q21.7863,232.7089 20.4581,231.0683 Q19.1456,229.412 19.1456,226.287 Q19.1456,223.162 20.4581,221.5058 Q21.7863,219.8495 24.2863,219.8495 Q24.9894,219.8495 25.63,220.0058 Q26.2863,220.162 26.8488,220.4589 L26.8488,223.1777 Q26.2238,222.5995 25.63,222.3339 Q25.0363,222.0527 24.4113,222.0527 Q23.0675,222.0527 22.38,223.1308 Q21.6925,224.1933 21.6925,226.287 Q21.6925,228.3808 22.38,229.4589 Q23.0675,230.5214 24.4113,230.5214 Q25.0363,230.5214 25.63,230.2558 Q26.2238,229.9745 26.8488,229.3964 L26.8488,232.1152 Z " fill="#000000"/><text fill="#D9B8FF" font-family="Helvetica" font-size="17" lengthAdjust="spacing" textLength="223" x="42.88" y="232.3598">aws_ecs_capacity_provider</text></g><!--class aws_ecs_cluster--><g id="elem_aws_ecs_cluster"><rect codeLine="26" fill="#3D176E" height="39.7891" id="aws_ecs_cluster" rx="2.5" ry="2.5" style="stroke:#000D19;stroke-width:0.5;" width="175" x="318.88" y="7"/><ellipse cx="333.88" cy="26.8945" fill="#ADD1B2" rx="11" ry="11" style="stroke:#181818;stroke-width:1.0;"/><path d="M336.8488,32.5352 Q336.2706,32.832 335.63,32.9727 Q334.9894,33.1289 334.2863,33.1289 Q331.7863,33.1289 330.4581,31.4883 Q329.1456,29.832 329.1456,26.707 Q329.1456,23.582 330.4581,21.9258 Q331.7863,20.2695 334.2863,20.2695 Q334.9894,20.2695 335.63,20.4258 Q336.2863,20.582 336.8488,20.8789 L336.8488,23.5977 Q336.2238,23.0195 335.63,22.7539 Q335.0363,22.4727 334.4113,22.4727 Q333.0675,22.4727 332.38,23.5508 Q331.6925,24.6133 331.6925,26.707 Q331.6925,28.8008 332.38,29.8789 Q333.0675,30.9414 334.4113,30.9414 Q335.0363,30.9414 335.63,30.6758 Q336.2238,30.3945 336.8488,29.8164 L336.8488,32.5352 Z " fill="#000000"/><text fill="#D9B8FF" font-family="Helvetica" font-size="17" lengthAdjust="spacing" textLength="133" x="352.88" y="32.7798">aws_ecs_cluster</text></g><!--class aws_ecs_container_instance--><g id="elem_aws_ecs_container_instance"><rect codeLine="29" fill="#3D176E" height="39.7891" id="aws_ecs_container_instance" rx="2.5" ry="2.5" style="stroke:#000D19;stroke-width:0.5;" width="277" x="320.88" y="206.58"/><ellipse cx="335.88" cy="226.4745" fill="#ADD1B2" rx="11" ry="11" style="stroke:#181818;stroke-width:1.0;"/><path d="M338.8488,232.1152 Q338.2706,232.412 337.63,232.5527 Q336.9894,232.7089 336.2863,232.7089 Q333.7863,232.7089 332.4581,231.0683 Q331.1456,229.412 331.1456,226.287 Q331.1456,223.162 332.4581,221.5058 Q333.7863,219.8495 336.2863,219.8495 Q336.9894,219.8495 337.63,220.0058 Q338.2863,220.162 338.8488,220.4589 L338.8488,223.1777 Q338.2238,222.5995 337.63,222.3339 Q337.0363,222.0527 336.4113,222.0527 Q335.0675,222.0527 334.38,223.1308 Q333.6925,224.1933 333.6925,226.287 Q333.6925,228.3808 334.38,229.4589 Q335.0675,230.5214 336.4113,230.5214 Q337.0363,230.5214 337.63,230.2558 Q338.2238,229.9745 338.8488,229.3964 L338.8488,232.1152 Z " fill="#000000"/><text fill="#D9B8FF" font-family="Helvetica" font-size="17" lengthAdjust="spacing" textLength="235" x="354.88" y="232.3598">aws_ecs_container_instance</text></g><!--class aws_ecs_service--><g id="elem_aws_ecs_service"><rect codeLine="32" fill="#3D176E" height="39.7891" id="aws_ecs_service" rx="2.5" ry="2.5" style="stroke:#000D19;stroke-width:0.5;" width="177" x="52.88" y="106.79"/><ellipse cx="67.88" cy="126.6845" fill="#ADD1B2" rx="11" ry="11" style="stroke:#181818;stroke-width:1.0;"/><path d="M70.8488,132.3252 Q70.2706,132.622 69.63,132.7627 Q68.9894,132.9189 68.2863,132.9189 Q65.7863,132.9189 64.4581,131.2783 Q63.1456,129.622 63.1456,126.497 Q63.1456,123.372 64.4581,121.7158 Q65.7863,120.0595 68.2863,120.0595 Q68.9894,120.0595 69.63,120.2158 Q70.2863,120.372 70.8488,120.6689 L70.8488,123.3877 Q70.2238,122.8095 69.63,122.5439 Q69.0363,122.2627 68.4113,122.2627 Q67.0675,122.2627 66.38,123.3408 Q65.6925,124.4033 65.6925,126.497 Q65.6925,128.5908 66.38,129.6689 Q67.0675,130.7314 68.4113,130.7314 Q69.0363,130.7314 69.63,130.4658 Q70.2238,130.1845 70.8488,129.6064 L70.8488,132.3252 Z " fill="#000000"/><text fill="#D9B8FF" font-family="Helvetica" font-size="17" lengthAdjust="spacing" textLength="135" x="86.88" y="132.5698">aws_ecs_service</text></g><!--class aws_ecs_task--><g id="elem_aws_ecs_task"><rect codeLine="35" fill="#3D176E" height="39.7891" id="aws_ecs_task" rx="2.5" ry="2.5" style="stroke:#000D19;stroke-width:0.5;" width="154" x="264.38" y="106.79"/><ellipse cx="279.38" cy="126.6845" fill="#ADD1B2" rx="11" ry="11" style="stroke:#181818;stroke-width:1.0;"/><path d="M282.3488,132.3252 Q281.7706,132.622 281.13,132.7627 Q280.4894,132.9189 279.7863,132.9189 Q277.2863,132.9189 275.9581,131.2783 Q274.6456,129.622 274.6456,126.497 Q274.6456,123.372 275.9581,121.7158 Q277.2863,120.0595 279.7863,120.0595 Q280.4894,120.0595 281.13,120.2158 Q281.7863,120.372 282.3488,120.6689 L282.3488,123.3877 Q281.7238,122.8095 281.13,122.5439 Q280.5363,122.2627 279.9113,122.2627 Q278.5675,122.2627 277.88,123.3408 Q277.1925,124.4033 277.1925,126.497 Q277.1925,128.5908 277.88,129.6689 Q278.5675,130.7314 279.9113,130.7314 Q280.5363,130.7314 281.13,130.4658 Q281.7238,130.1845 282.3488,129.6064 L282.3488,132.3252 Z " fill="#000000"/><text fill="#D9B8FF" font-family="Helvetica" font-size="17" lengthAdjust="spacing" textLength="112" x="298.38" y="132.5698">aws_ecs_task</text></g><!--class aws_kms_key--><g id="elem_aws_kms_key"><rect codeLine="38" fill="#3D176E" height="39.7891" id="aws_kms_key" rx="2.5" ry="2.5" style="stroke:#000D19;stroke-width:0.5;" width="158" x="524.38" y="106.79"/><ellipse cx="539.38" cy="126.6845" fill="#ADD1B2" rx="11" ry="11" style="stroke:#181818;stroke-width:1.0;"/><path d="M542.3488,132.3252 Q541.7706,132.622 541.13,132.7627 Q540.4894,132.9189 539.7863,132.9189 Q537.2863,132.9189 535.9581,131.2783 Q534.6456,129.622 534.6456,126.497 Q534.6456,123.372 535.9581,121.7158 Q537.2863,120.0595 539.7863,120.0595 Q540.4894,120.0595 541.13,120.2158 Q541.7863,120.372 542.3488,120.6689 L542.3488,123.3877 Q541.7238,122.8095 541.13,122.5439 Q540.5363,122.2627 539.9113,122.2627 Q538.5675,122.2627 537.88,123.3408 Q537.1925,124.4033 537.1925,126.497 Q537.1925,128.5908 537.88,129.6689 Q538.5675,130.7314 539.9113,130.7314 Q540.5363,130.7314 541.13,130.4658 Q541.7238,130.1845 542.3488,129.6064 L542.3488,132.3252 Z " fill="#000000"/><text fill="#D9B8FF" font-family="Helvetica" font-size="17" lengthAdjust="spacing" textLength="116" x="558.38" y="132.5698">aws_kms_key</text></g><!--class aws_s3_bucket--><g id="elem_aws_s3_bucket"><rect codeLine="41" fill="#3D176E" height="39.7891" id="aws_s3_bucket" rx="2.5" ry="2.5" style="stroke:#000D19;stroke-width:0.5;" width="168" x="717.38" y="106.79"/><ellipse cx="732.38" cy="126.6845" fill="#ADD1B2" rx="11" ry="11" style="stroke:#181818;stroke-width:1.0;"/><path d="M735.3488,132.3252 Q734.7706,132.622 734.13,132.7627 Q733.4894,132.9189 732.7863,132.9189 Q730.2863,132.9189 728.9581,131.2783 Q727.6456,129.622 727.6456,126.497 Q727.6456,123.372 728.9581,121.7158 Q730.2863,120.0595 732.7863,120.0595 Q733.4894,120.0595 734.13,120.2158 Q734.7863,120.372 735.3488,120.6689 L735.3488,123.3877 Q734.7238,122.8095 734.13,122.5439 Q733.5363,122.2627 732.9113,122.2627 Q731.5675,122.2627 730.88,123.3408 Q730.1925,124.4033 730.1925,126.497 Q730.1925,128.5908 730.88,129.6689 Q731.5675,130.7314 732.9113,130.7314 Q733.5363,130.7314 734.13,130.4658 Q734.7238,130.1845 735.3488,129.6064 L735.3488,132.3252 Z " fill="#000000"/><text fill="#D9B8FF" font-family="Helvetica" font-size="17" lengthAdjust="spacing" textLength="126" x="751.38" y="132.5698">aws_s3_bucket</text></g><!--link aws_ecs_cluster to aws_ecs_capacity_provider--><g id="link_aws_ecs_cluster_aws_ecs_capacity_provider"><path codeLine="44" d="M318.65,34.1 C220.42,43.08 70.34,63.61 35.38,106.79 C6,143.08 56.3749,180.2485 97.5549,203.3085 " fill="none" id="aws_ecs_cluster-to-aws_ecs_capacity_provider" style="stroke:#1A83AF;stroke-width:2.0;"/><polygon fill="#1A83AF" points="102.79,206.24,96.8917,198.3526,98.4274,203.797,92.983,205.3327,102.79,206.24" style="stroke:#1A83AF;stroke-width:2.0;"/></g><!--link aws_ecs_cluster to aws_ecs_container_instance--><g id="link_aws_ecs_cluster_aws_ecs_container_instance"><path codeLine="45" d="M414.72,47.04 C421.34,62.82 430.44,85.93 436.38,106.79 C446.21,141.31 452.2822,176.7361 455.8222,200.3961 " fill="none" id="aws_ecs_cluster-to-aws_ecs_container_instance" style="stroke:#1A83AF;stroke-width:2.0;"/><polygon fill="#1A83AF" points="456.71,206.33,459.3342,196.8372,455.9701,201.385,451.4223,198.021,456.71,206.33" style="stroke:#1A83AF;stroke-width:2.0;"/></g><!--link aws_ecs_cluster to aws_ecs_service--><g id="link_aws_ecs_cluster_aws_ecs_service"><path codeLine="46" d="M354.02,47.22 C307.57,64.36 245.6786,87.1917 199.2586,104.3317 " fill="none" id="aws_ecs_cluster-to-aws_ecs_service" style="stroke:#1A83AF;stroke-width:2.0;"/><polygon fill="#1A83AF" points="193.63,106.41,203.4584,107.045,198.3205,104.6781,200.6873,99.5402,193.63,106.41" style="stroke:#1A83AF;stroke-width:2.0;"/></g><!--link aws_ecs_cluster to aws_ecs_task--><g id="link_aws_ecs_cluster_aws_ecs_task"><path codeLine="47" d="M393.54,47.22 C382.14,64.36 368.8988,84.2714 357.5188,101.4114 " fill="none" id="aws_ecs_cluster-to-aws_ecs_task" style="stroke:#1A83AF;stroke-width:2.0;"/><polygon fill="#1A83AF" points="354.2,106.41,362.5105,101.1247,356.9656,102.2445,355.8458,96.6996,354.2,106.41" style="stroke:#1A83AF;stroke-width:2.0;"/></g><!--link aws_ecs_cluster to aws_kms_key--><g id="link_aws_ecs_cluster_aws_kms_key"><path codeLine="48" d="M445.3,47.22 C479.84,64.36 524.6563,86.6011 559.1663,103.7411 " fill="none" id="aws_ecs_cluster-to-aws_kms_key" style="stroke:#1A83AF;stroke-width:2.0;"/><polygon fill="#1A83AF" points="564.54,106.41,558.2587,98.8241,560.0619,104.1859,554.7001,105.9891,564.54,106.41" style="stroke:#1A83AF;stroke-width:2.0;"/></g><!--link aws_ecs_cluster to aws_s3_bucket--><g id="link_aws_ecs_cluster_aws_s3_bucket"><path codeLine="49" d="M484.42,47.22 C553.56,64.33 648.1558,87.7481 717.3458,104.8781 " fill="none" id="aws_ecs_cluster-to-aws_s3_bucket" style="stroke:#1A83AF;stroke-width:2.0;"/><polygon fill="#1A83AF" points="723.17,106.32,715.3951,100.2743,718.3165,105.1184,713.4725,108.0399,723.17,106.32" style="stroke:#1A83AF;stroke-width:2.0;"/></g><!--link aws_ecs_service to aws_ecs_capacity_provider--><g id="link_aws_ecs_service_aws_ecs_capacity_provider"><path codeLine="50" d="M141.38,147.01 C141.38,164.15 141.38,183.06 141.38,200.2 " fill="none" id="aws_ecs_service-to-aws_ecs_capacity_provider" style="stroke:#1A83AF;stroke-width:2.0;"/><polygon fill="#1A83AF" points="141.38,206.2,145.38,197.2,141.38,201.2,137.38,197.2,141.38,206.2" style="stroke:#1A83AF;stroke-width:2.0;"/></g><!--link aws_ecs_task to aws_ecs_capacity_provider--><g id="link_aws_ecs_task_aws_ecs_capacity_provider"><path codeLine="51" d="M301.87,147.01 C266.8,164.15 221.2397,186.4236 186.1997,203.5636 " fill="none" id="aws_ecs_task-to-aws_ecs_capacity_provider" style="stroke:#1A83AF;stroke-width:2.0;"/><polygon fill="#1A83AF" points="180.81,206.2,190.6522,205.8385,185.3014,204.003,187.137,198.6522,180.81,206.2" style="stroke:#1A83AF;stroke-width:2.0;"/></g><!--link aws_ecs_task to aws_ecs_container_instance--><g id="link_aws_ecs_task_aws_ecs_container_instance"><path codeLine="52" d="M364.69,147.01 C385.38,164.15 410.8204,185.2312 431.5004,202.3712 " fill="none" id="aws_ecs_task-to-aws_ecs_container_instance" style="stroke:#1A83AF;stroke-width:2.0;"/><polygon fill="#1A83AF" points="436.12,206.2,431.7432,197.3771,432.2704,203.0093,426.6381,203.5365,436.12,206.2" style="stroke:#1A83AF;stroke-width:2.0;"/></g><!--SRC=[hP91Qy9048Nl-HKBdWNJqAgNWXMalKYflPKI9hiJNPBiXjcDafR-zoPg9Tr4Ow67NEPzi_lUssoaG8PPRakMOHOX6SyaKkL0aB4PaTxDTQg93U8Ouc3iYWkjR2-mX0pP8wPRj9A3Ixnk94yK6iDk6j83y6HDkb3YSBmbKAQIKDa6DK_1c9cr9AF2OiECc4QJE7P9zz118Fpn7ROmJGBfY8n68-5FNQJtgekvJyHAVY3pcwKjjSMMpTOLU-gYovfec6m5_T7FUdm68QHQizl6xENWYHJIh_bg0qBlQZg6r3IlCHO9jIrpdBTIuNGYud4d_7GEzdXT7OET2P6Ra4CENDeop4blgp-PsAVdVRbGMjGdTqfL0o2hEA5KneBYs4KPfAtibYoOn9qdMVLXwOvD44O5Jz0U1DVTy6tWpoR1RF4-l3-VxygrLgphzev1huFhwFtaiOn-y5IFvzR-nsRsJ_9_E-qglm40]--></g></svg>

<svg xmlns="http://www.w3.org/2000/svg" width="892" height="252" viewBox="0 0 892 252"><rect width="265" height="39.789" x="8.88" y="206.58" fill="#3D176E" rx="2.5" ry="2.5" style="stroke:#000d19;stroke-width:.5"/><circle cx="23.88" cy="226.475" r="11" fill="#ADD1B2" style="stroke:#181818;stroke-width:1"/><path d="M26.849 232.115q-.578.297-1.219.438-.64.156-1.344.156-2.5 0-3.828-1.64-1.312-1.657-1.312-4.782t1.312-4.781q1.328-1.656 3.828-1.656.703 0 1.344.156.656.156 1.219.453v2.719q-.625-.578-1.219-.844-.594-.281-1.219-.281-1.344 0-2.031 1.078-.687 1.062-.687 3.156t.687 3.172q.688 1.062 2.031 1.062.625 0 1.219-.265.594-.281 1.219-.86z"/><text x="42.88" y="232.36" fill="#D9B8FF" font-family="Helvetica" font-size="17" textLength="223">aws_ecs_capacity_provider</text><rect width="175" height="39.789" x="318.88" y="7" fill="#3D176E" rx="2.5" ry="2.5" style="stroke:#000d19;stroke-width:.5"/><circle cx="333.88" cy="26.895" r="11" fill="#ADD1B2" style="stroke:#181818;stroke-width:1"/><path d="M336.849 32.535q-.578.297-1.219.438-.64.156-1.344.156-2.5 0-3.828-1.64-1.312-1.657-1.312-4.782t1.312-4.781q1.328-1.656 3.828-1.656.703 0 1.344.156.656.156 1.219.453v2.719q-.625-.578-1.219-.844-.594-.281-1.219-.281-1.344 0-2.031 1.078-.687 1.062-.687 3.156t.687 3.172q.688 1.062 2.031 1.062.625 0 1.219-.265.594-.281 1.219-.86z"/><text x="352.88" y="32.78" fill="#D9B8FF" font-family="Helvetica" font-size="17" textLength="133">aws_ecs_cluster</text><rect width="277" height="39.789" x="320.88" y="206.58" fill="#3D176E" rx="2.5" ry="2.5" style="stroke:#000d19;stroke-width:.5"/><circle cx="335.88" cy="226.475" r="11" fill="#ADD1B2" style="stroke:#181818;stroke-width:1"/><path d="M338.849 232.115q-.578.297-1.219.438-.64.156-1.344.156-2.5 0-3.828-1.64-1.312-1.657-1.312-4.782t1.312-4.781q1.328-1.656 3.828-1.656.703 0 1.344.156.656.156 1.219.453v2.719q-.625-.578-1.219-.844-.594-.281-1.219-.281-1.344 0-2.031 1.078-.687 1.062-.687 3.156t.687 3.172q.688 1.062 2.031 1.062.625 0 1.219-.265.594-.281 1.219-.86z"/><text x="354.88" y="232.36" fill="#D9B8FF" font-family="Helvetica" font-size="17" textLength="235">aws_ecs_container_instance</text><rect width="177" height="39.789" x="52.88" y="106.79" fill="#3D176E" rx="2.5" ry="2.5" style="stroke:#000d19;stroke-width:.5"/><circle cx="67.88" cy="126.684" r="11" fill="#ADD1B2" style="stroke:#181818;stroke-width:1"/><path d="M70.849 132.325q-.578.297-1.219.438-.64.156-1.344.156-2.5 0-3.828-1.64-1.312-1.657-1.312-4.782t1.312-4.781q1.328-1.656 3.828-1.656.703 0 1.344.156.656.156 1.219.453v2.719q-.625-.579-1.219-.844-.594-.281-1.219-.281-1.344 0-2.031 1.078-.687 1.062-.687 3.156t.687 3.172q.688 1.062 2.031 1.062.625 0 1.219-.265.594-.281 1.219-.86z"/><text x="86.88" y="132.57" fill="#D9B8FF" font-family="Helvetica" font-size="17" textLength="135">aws_ecs_service</text><rect width="154" height="39.789" x="264.38" y="106.79" fill="#3D176E" rx="2.5" ry="2.5" style="stroke:#000d19;stroke-width:.5"/><circle cx="279.38" cy="126.684" r="11" fill="#ADD1B2" style="stroke:#181818;stroke-width:1"/><path d="M282.349 132.325q-.578.297-1.219.438-.64.156-1.344.156-2.5 0-3.828-1.64-1.312-1.657-1.312-4.782t1.312-4.781q1.328-1.656 3.828-1.656.703 0 1.344.156.656.156 1.219.453v2.719q-.625-.579-1.219-.844-.594-.281-1.219-.281-1.344 0-2.031 1.078-.687 1.062-.687 3.156t.687 3.172q.688 1.062 2.031 1.062.625 0 1.219-.265.594-.281 1.219-.86z"/><text x="298.38" y="132.57" fill="#D9B8FF" font-family="Helvetica" font-size="17" textLength="112">aws_ecs_task</text><rect width="158" height="39.789" x="524.38" y="106.79" fill="#3D176E" rx="2.5" ry="2.5" style="stroke:#000d19;stroke-width:.5"/><circle cx="539.38" cy="126.684" r="11" fill="#ADD1B2" style="stroke:#181818;stroke-width:1"/><path d="M542.349 132.325q-.578.297-1.219.438-.64.156-1.344.156-2.5 0-3.828-1.64-1.312-1.657-1.312-4.782t1.312-4.781q1.328-1.656 3.828-1.656.703 0 1.344.156.656.156 1.219.453v2.719q-.625-.579-1.219-.844-.594-.281-1.219-.281-1.343 0-2.031 1.078-.687 1.062-.687 3.156t.687 3.172q.688 1.062 2.031 1.062.625 0 1.219-.265.594-.281 1.219-.86z"/><text x="558.38" y="132.57" fill="#D9B8FF" font-family="Helvetica" font-size="17" textLength="116">aws_kms_key</text><rect width="168" height="39.789" x="717.38" y="106.79" fill="#3D176E" rx="2.5" ry="2.5" style="stroke:#000d19;stroke-width:.5"/><circle cx="732.38" cy="126.684" r="11" fill="#ADD1B2" style="stroke:#181818;stroke-width:1"/><path d="M735.349 132.325q-.578.297-1.219.438-.64.156-1.344.156-2.5 0-3.828-1.64-1.312-1.657-1.312-4.782t1.312-4.781q1.328-1.656 3.828-1.656.703 0 1.344.156.656.156 1.219.453v2.719q-.625-.579-1.219-.844-.594-.281-1.219-.281-1.343 0-2.031 1.078-.687 1.062-.687 3.156t.687 3.172q.688 1.062 2.031 1.062.625 0 1.219-.265.594-.281 1.219-.86z"/><text x="751.38" y="132.57" fill="#D9B8FF" font-family="Helvetica" font-size="17" textLength="126">aws_s3_bucket</text><path fill="none" d="M318.65 34.1c-98.23 8.98-248.31 29.51-283.27 72.69C6 143.08 56.375 180.249 97.555 203.309" style="stroke:#1a83af;stroke-width:2"/><path fill="#1A83AF" d="m102.79 206.24-5.898-7.887 1.535 5.444-5.444 1.536z" style="stroke:#1a83af;stroke-width:2"/><path fill="none" d="M414.72 47.04c6.62 15.78 15.72 38.89 21.66 59.75 9.83 34.52 15.902 69.946 19.442 93.606" style="stroke:#1a83af;stroke-width:2"/><path fill="#1A83AF" d="m456.71 206.33 2.624-9.493-3.364 4.548-4.548-3.364z" style="stroke:#1a83af;stroke-width:2"/><path fill="none" d="M354.02 47.22c-46.45 17.14-108.341 39.972-154.761 57.112" style="stroke:#1a83af;stroke-width:2"/><path fill="#1A83AF" d="m193.63 106.41 9.828.635-5.137-2.367 2.366-5.138z" style="stroke:#1a83af;stroke-width:2"/><path fill="none" d="M393.54 47.22a84739 84739 0 0 0-36.021 54.191" style="stroke:#1a83af;stroke-width:2"/><path fill="#1A83AF" d="m354.2 106.41 8.31-5.285-5.544 1.12-1.12-5.545z" style="stroke:#1a83af;stroke-width:2"/><path fill="none" d="M445.3 47.22c34.54 17.14 79.356 39.381 113.866 56.521" style="stroke:#1a83af;stroke-width:2"/><path fill="#1A83AF" d="m564.54 106.41-6.281-7.586 1.803 5.362-5.362 1.803z" style="stroke:#1a83af;stroke-width:2"/><path fill="none" d="M484.42 47.22c69.14 17.11 163.736 40.528 232.926 57.658" style="stroke:#1a83af;stroke-width:2"/><path fill="#1A83AF" d="m723.17 106.32-7.775-6.046 2.922 4.844-4.845 2.922z" style="stroke:#1a83af;stroke-width:2"/><path fill="none" d="M141.38 147.01v53.19" style="stroke:#1a83af;stroke-width:2"/><path fill="#1A83AF" d="m141.38 206.2 4-9-4 4-4-4z" style="stroke:#1a83af;stroke-width:2"/><path fill="none" d="M301.87 147.01c-35.07 17.14-80.63 39.414-115.67 56.554" style="stroke:#1a83af;stroke-width:2"/><path fill="#1A83AF" d="m180.81 206.2 9.842-.361-5.35-1.836 1.835-5.35z" style="stroke:#1a83af;stroke-width:2"/><path fill="none" d="M364.69 147.01c20.69 17.14 46.13 38.221 66.81 55.361" style="stroke:#1a83af;stroke-width:2"/><path fill="#1A83AF" d="m436.12 206.2-4.377-8.823.527 5.632-5.632.528z" style="stroke:#1a83af;stroke-width:2"/></svg>
